public/img/ecosystem/sanctum.min.svg

<svg height="48" viewBox="0 0 48 48" width="48" xmlns="http://www.w3.org/2000/svg"><path d="m24 30.5c-3.6 0-6.5-2.9-6.5-6.5s2.9-6.5 6.5-6.5 6.5 2.9 6.5 6.5-2.9 6.5-6.5 6.5zm-15 2.1v-17.2l6.4-6.4h6.6v-9h-6.7c-2.1 0-4.2.8-5.7 2.3l-7.3 7.4c-1.5 1.5-2.3 3.5-2.3 5.6v1.7h3v4h-3v6h3v4h-3v1.7c0 2.1.8 4.2 2.3 5.7l7.3 7.3c1.5 1.5 3.5 2.3 5.7 2.3h6.7v-9h-6.6zm39-15.6v-1.7c0-2.1-.8-4.2-2.3-5.7l-7.3-7.3c-1.6-1.5-3.6-2.3-5.7-2.3h-6.7v9h6.6l6.4 6.4v17.1l-6.4 6.5h-6.6v9h6.7c2.1 0 4.2-.8 5.7-2.3l7.3-7.3c1.5-1.5 2.3-3.5 2.3-5.7v-1.7h-3v-4h3v-6h-3v-4z" fill="#fff"/></svg>

<svg xmlns="http://www.w3.org/2000/svg" viewBox="0 0 48 48" width="48" height="48">
    <title>Laravel Sanctum logomark</title>
    <path fill="#fff" d="M24,30.5c-3.6,0-6.5-2.9-6.5-6.5s2.9-6.5,6.5-6.5s6.5,2.9,6.5,6.5S27.6,30.5,24,30.5z M9,32.6V15.4L15.4,9H22V0 h-6.7c-2.1,0-4.2,0.8-5.7,2.3L2.3,9.7C0.8,11.2,0,13.2,0,15.3V17h3v4H0v6h3v4H0v1.7c0,2.1,0.8,4.2,2.3,5.7l7.3,7.3 c1.5,1.5,3.5,2.3,5.7,2.3H22v-9h-6.6L9,32.6z M48,17v-1.7c0-2.1-0.8-4.2-2.3-5.7l-7.3-7.3C36.8,0.8,34.8,0,32.7,0H26v9h6.6l6.4,6.4 v17.1L32.6,39H26v9h6.7c2.1,0,4.2-0.8,5.7-2.3l7.3-7.3c1.5-1.5,2.3-3.5,2.3-5.7V31h-3v-4h3v-6h-3v-4H48z"/>
</svg>
